X:27
T:Maude Miller #2
M:4/4
L:1/8
K:G
"D" dcAG     FADF | "C"~E2 =cE    dEcE | "D" dcAG     FADF |1 "A" Dddc "D" dfed :|2 "A" Dddc "D" d2 d2 ||
"D" fedf "C" efge | "D" afge "A"  afge | "D" fedf "C" efge | "D" afge "A" fd e2 |
"D" fedf "C" efge | "D" afge "A" f2 fg | "D" afge "A" fdec | "A" Addc      dfed |]
